!!!COM:	Busnoys, Antoine
!!!CDT:	~1430///-1492/11/06
!!!OTL:	Soudainement mon cueur a pris
!!!AGN:	Song; Chanson
!!!SCT:	Bus3055
!!!SCA:	Bus3055
!!!voices:	3
**kern	**kern	**kern
*staff3	*staff2	*staff1
*Ivox	*Ivox	*Ivox
*I"Contra	*I"Tenor	*I"Superius
*I'C	*I'T	*I'S
*>[A,B,B1,B,C]	*>[A,B,B1,B,C]	*>[A,B,B1,B,C]
*>A	*>A	*>A
*clefF4	*clefGv2	*clefG2
*k[b-]	*k[b-]	*k[]
*M2/1	*M2/1	*M2/1
*met(C|)	*met(C|)	*met(C|)
=1-	=1-	=1-
!!LO:TX:Z=24:t=Virelai
0r	0r	0r
=2	=2	=2
1r	1r	1r
1A	1D	1d
=3	=3	=3
1.c	1.A	1.f
2B-	2B-	2g
=4	=4	=4
1A	1c	1.a
2F	[1d	.
2D	.	2b-i
=5	=5	=5
2.F	1d]	2a
.	.	4g
4G	.	4f
1A	1c#i	1e
=6	=6	=6
[0D	0d	1r
.	.	1a
=7	=7	=7
1D]	1r	1a
1F	1d	1a
=8	=8	=8
1G	1d	1b
1E	1e	1cc
=9	=9	=9
[0D	1f	1dd
.	1f	1dd
=10	=10	=10
0D]	1.f	1.dd
.	4e	4cc
.	4d	4b
=11	=11	=11
1r	1c	1a
1G	1d	1b
=12	=12	=12
2.F	1A	1.cc
4G	.	.
2.A	1e	.
.	.	4b
4B-	.	4a
=13	=13	=13
1c	1e	1g
[1F	1f	1r
=14	=14	=14
2F]	0d	1.a
2G	.	.
[1A	.	.
.	.	4g
.	.	4f
=15	=15	=15
1A]	1c#i	1e
[1D	1d	1d
=16	=16	=16
1D]	1f	1a
1G	[1e	1b
=17	=17	=17
1A	1e]	1cc
1B-	1d	2.dd
.	.	4cc
=18	=18	=18
1c	1e	2.b
.	.	4a
1A	1c	[1a
=19	=19	=19
0E	0Bn	1a]
.	.	1g#i
=20	=20	=20
[0F	1r	[0a
.	[1A	.
=21	=21	=21
1F]	2A]	0a]
.	4Bni	.
.	4c	.
1D	1d	.
=22	=22	=22
1F	1A	0r
1G	[1d	.
=23	=23	=23
0D	1d]	0a
.	1f	.
=24	=24	=24
0r	1e	1g
.	1c	1e
=25	=25	=25
0BB-	1d	1f
.	1d	1f
=26	=26	=26
1C	0A	1e
[1D	.	[1f
=27	=27	=27
1D]	1.A	2f]
.	.	2e
1AA	.	1e
.	2G	.
=28	=28	=28
1BB-	1F	1d
1C	1E	[1e
=29	=29	=29
0D	0F	1e]
.	.	1d
=30	=30	=30
[0AA	1E	[0e
.	1r	.
=31	=31	=31
0AA]	0A	0e]
=32	=32	=32
0G	1B-	0r
.	1B-	.
=33	=33	=33
0A	0c	0a
=34	=34	=34
1.G	0d	1b
.	.	1b
2F	.	.
=35	=35	=35
0E	0e	0cc
=36	=36	=36
0D	1.f	1.dd
.	4e	4cc
.	4d	4b
=37	=37	=37
1r	0c	1.a
1A	.	.
.	.	4g
.	.	4a
=38	=38	=38
1G	1.d	2b-
.	.	4a
.	.	4b-i
2F	.	2a
2D	2B-	4g
.	.	4f
=39	=39	=39
1E	1c	1e
1D	2d	1f
.	[2A	.
=40	=40	=40
1r	2A]	2e
.	4G	1d
.	4F	.
1G	1E	.
.	.	2c#i
=41	=41	=41
2F	1D	2d
1B-	.	2f
.	2r	2g
[2A	2D	[2a
=42	=42	=42
2A]	2F	2a]
2G	2G	2b-i
2.F	2.A	2a
.	.	4g
4G	4B-	4f
=43	=43	=43
2A	2c	2e
2B-	1d	2d
1A	.	1e
.	2c#i	.
=44	=44	=44
2D	2d	[0dl
1G	1B-	.
2B-	[2G	.
=45	=45	=45
1A	2G]	0d_
.	2F	.
1G	2.G	.
.	4F	.
=46	=46	=46
2A	[0Dl	0d_
1B-	.	.
2A	.	.
=47	=47	=47
0Al	0D]	0d]
!!LO:LB:i:g=z
=48||!|:	=48||!|:	=48||!|:
*>B	*>B	*>B
*clefF4	*clefGv2	*clefG2
*k[]	*k[b-]	*k[]
*M2/1	*M2/1	*M2/1
*met(C|)	*met(C|)	*met(C|)
!!section: Car il ne puet rien
!!!OMD: Car il ne puet rien
1.AA	0r	0r
2BB	.	.
=49	=49	=49
1C	0r	0r
[1D	.	.
=50	=50	=50
2D]	0r	0r
2C#i	.	.
2C#i	.	.
2BB	.	.
=51	=51	=51
1D	1.A	0r
1F	.	.
.	2B-	.
=52	=52	=52
1E	1c	0r
1D	[1d	.
=53	=53	=53
0E	2d]	0r
.	2c#i	.
.	2c#i	.
.	2Bni	.
=54	=54	=54
0D	1d	1.a
.	1f	.
.	.	2b
=55	=55	=55
0r	1e	1cc
.	1d	[1dd
=56	=56	=56
0A	0e	2dd]
.	.	2cc#i
.	.	2cc#i
.	.	2b
=57	=57	=57
1.D	0d	1dd
.	.	[1a
2E	.	.
=58	=58	=58
1F	1r	2a]
.	.	2g
1D	1d	1f
=59	=59	=59
0E	1c	1e
.	1c	1e
=60	=60	=60
0D	0d	1f
.	.	1f
=61	=61	=61
0r	1.A	1e
.	.	2f
.	2B-	[2g
=62	=62	=62
1C	1c	2g]
.	.	4a
.	.	4g
2.D	2A	4f
.	.	4e
.	[2d	2d
4BB	.	.
=63	=63	=63
1AA	2d]	1e
.	2c	.
1BB	1d	1d
=64	=64	=64
0C	1.e	1.g
.	2c	4f
.	.	4e
=65	=65	=65
1r	1d	1.f
[1D	1r	.
.	.	2d
=66	=66	=66
2D]	0f	0d
2.BB	.	.
4C	.	.
2D	.	.
=67	=67	=67
0AA	1e	0r
.	1e	.
=68	=68	=68
0BB	0d	0f
=69	=69	=69
0C	1c	1e
.	1A	1e
=70	=70	=70
0BB-i	2.B-	0d
.	4A	.
.	2.G	.
.	4F	.
=71	=71	=71
1C	1E	1c
1D	1D	1f
=72	=72	=72
1C	1.E	1.g
1BB	.	.
.	4F	4f
.	4G	4e
=73	=73	=73
1AA	1.A	1.f
2BB	.	.
[2C	[2G	[2e
=74	=74	=74
2C]	4G]	2e]
.	4D	.
2D	2F	1d
1AA	1E	.
.	.	2c#i
!!LO:REP:start=1
*>B1	*>B1	*>B2
=75	=75	=75
0AN	0DN	0dN
!!LO:REP:end=1
!!LO:REP:start=2
=76:|!	=76:|!	=76:|!
*>C	*>C	*>C
2A	1D	2d
2B	.	2.f
1c	1C	.
.	.	4e
.	.	[2g
!!LO:REP:open=2
=77	=77	=77
2A	2D	4g]
.	.	4f
1A	2F	4e
.	.	4d
.	1E	2.c#i
2G	.	.
.	.	4B
=78	=78	=78
0Al	0Dl	0dl
==	==	==
*-	*-	*-
!!!RDF**kern: l=long note in original notation
!!!RDF**kern: i=editorial accidental
!!!RDF**kern: N=signum congruentiae
!!!ENC:	Chris Gage 05-13-2015
!!!END:	2016/02/08/
!!!EED:	Jesse Rodin
!!!EEV:	2016/02/08/
!!!ONB:	Translated from MusicXML and edited on 2016/02/08/ by Craig Sapp
!!muse2ps: C^@{COM}^i2I150v95,95,150Q16
